X: 34
T: PAUL'S STEEPLE
B: "FIFTY OLD ENGLISH FOLK DANCE AIRS", Edgar H. Hunt ed., Schott & Co. Ltd. pub., London 1939
Z: 2004-2014 John Chambers <jc:trillian.mit.edu>
M: 2/2
L: 1/4
K: Gdor
[|\
GG GG |B3 (c/B/) | AF FF | F3F | GG GA | B3c | dd dd | d3 c |
BB BB | B3B | cc cc | c3 c | d2 cB | (AG) A2 | (=BG) GG | G4 |]

%%sep 1 1 500
%%sep 1 1 500
